X: 20757
T: Johnny Henry's
R: jig
M: 6/8
K: Gmajor
|:D3 EDB,|DGB ded|BGB AGA|BGE DB,C|
D3 EDE|DGB ded|BGB ABc|1 BGF GFE:|2 BGF GED||
G2B dBd|edB dBd|BGB AGA|BGE DB,D|
G2B dBd|edB dBd|BGB AGA|1 BGF G2D:|2 BGF GFE||

